src/lib/packages/icons/src/assets/line/alarm-clock-empty.svg

<svg width="24" height="24" viewBox="0 0 24 24" fill="none" xmlns="http://www.w3.org/2000/svg">
<path d="M20.75 12C20.75 7.17502 16.825 3.25002 12 3.25002C7.17502 3.25002 3.25002 7.17502 3.25002 12C3.25002 14.905 4.67904 17.4771 6.86404 19.0691L5.46902 20.471C5.17602 20.765 5.17797 21.24 5.47097 21.532C5.61697 21.678 5.80902 21.75 6.00002 21.75C6.19202 21.75 6.38503 21.6761 6.53103 21.5291L8.18801 19.864C9.34201 20.426 10.632 20.75 12 20.75C13.368 20.75 14.657 20.426 15.812 19.864L17.469 21.5291C17.615 21.6761 17.808 21.75 18 21.75C18.191 21.75 18.3831 21.677 18.5291 21.532C18.8221 21.24 18.824 20.765 18.531 20.471L17.136 19.0691C19.321 17.4771 20.75 14.905 20.75 12ZM4.75002 12C4.75002 8.00202 8.00202 4.75002 12 4.75002C15.998 4.75002 19.25 8.00202 19.25 12C19.25 15.998 15.998 19.25 12 19.25C8.00202 19.25 4.75002 15.998 4.75002 12ZM21.5359 5.52505C21.3889 5.67505 21.194 5.75002 21 5.75002C20.811 5.75002 20.6211 5.67903 20.4751 5.53603L18.4751 3.57607C18.1801 3.28607 18.1751 2.81104 18.4641 2.51504C18.7561 2.21904 19.2299 2.21405 19.5259 2.50405L21.5259 4.46401C21.8199 4.75401 21.8249 5.22905 21.5359 5.52505ZM3.53005 5.53005C3.38405 5.67605 3.19202 5.75002 3.00002 5.75002C2.80802 5.75002 2.61599 5.67705 2.46999 5.53005C2.17699 5.23705 2.17699 4.76202 2.46999 4.46902L4.46999 2.46902C4.76299 2.17602 5.23803 2.17602 5.53103 2.46902C5.82403 2.76202 5.82403 3.23705 5.53103 3.53005L3.53005 5.53005Z" fill="currentColor"/>
</svg>

<svg xmlns="http://www.w3.org/2000/svg" width="24" height="24" fill="none"><path fill="currentColor" d="M20.75 12c0-4.825-3.925-8.75-8.75-8.75S3.25 7.175 3.25 12c0 2.905 1.429 5.477 3.614 7.07l-1.395 1.4a.75.75 0 1 0 1.062 1.058l1.657-1.665A8.678 8.678 0 0 0 12 20.75a8.681 8.681 0 0 0 3.812-.886l1.657 1.665a.747.747 0 0 0 1.06.003.75.75 0 0 0 .002-1.061l-1.395-1.402c2.185-1.592 3.614-4.164 3.614-7.069Zm-16 0c0-3.998 3.252-7.25 7.25-7.25s7.25 3.252 7.25 7.25-3.252 7.25-7.25 7.25S4.75 15.998 4.75 12Zm16.786-6.475a.749.749 0 0 1-1.06.011l-2-1.96a.751.751 0 0 1 1.05-1.072l2 1.96c.294.29.299.765.01 1.061ZM3.53 5.53a.748.748 0 0 1-1.06 0 .75.75 0 0 1 0-1.061l2-2A.75.75 0 0 1 5.531 3.53l-2 2Z"/></svg>
